web/workspace/public/assets/icons/white/maximize.svg

<svg height="30" viewBox="0 0 30 30" width="30" xmlns="http://www.w3.org/2000/svg"><path d="m19 3v2h4.6l-6.6 6.6 1.4 1.4 6.6-6.6v4.6h2v-8zm-7.4 14-6.6 6.6v-4.6h-2v8h8v-2h-4.6l6.6-6.6z" fill="#fff"/></svg>

<svg xmlns="http://www.w3.org/2000/svg" width="30" height="30" viewBox="0 0 30 30"><path d="M19 3v2h4.6L17 11.6l1.4 1.4L25 6.4V11h2V3h-8zm-7.4 14L5 23.6V19H3v8h8v-2H6.4l6.6-6.6-1.4-1.4z" fill="#fff"/></svg>
